!!!COM:	la Rue, Pierre de
!!!CDT:	~1452///-1518/11/20
!!!OPR:	Missa Incessament
!!!ONM:	4
!!!OTL:	Sanctus
!!!AGN:	Mass; Sanctus
!!!SCT:	Rue1016d
!!!SCA:	Rue1016d
!!!voices:	5
!!!voices-OPR:	5
**kern	**kern	**kern	**kern	**kern
*staff5	*staff4	*staff3	*staff2	*staff1
*Ivox	*Ivox	*Ivox	*Ivox	*Ivox
*I"Bassus2	*I"Bassus1	*I"Tenor	*I"Contra	*I"Discantus
*I'B2	*I'B1	*I'T	*I'C	*I'D
*>[A,B,C,D,E]	*>[A,B,C,D,E]	*>[A,B,C,D,E]	*>[A,B,C,D,E]	*>[A,B,C,D,E]
*>A	*>A	*>A	*>A	*>A
*clefF4	*clefF4	*clefGv2	*clefGv2	*clefG2
*k[]	*k[]	*k[]	*k[]	*k[]
*M2/1	*M2/1	*M2/1	*M2/1	*M2/1
*met(C2)	*met(C2)	*met(C2)	*met(C2)	*met(C2)
=1-	=1-	=1-	=1-	=1-
!LO:TX:X=-40:Z=8:t=[Canon at the upper fourth]	!	!	!	!
!!section: Sanctus
!!!OMD: Sanctus
0r	0r	0r	0d	0r
=2.	=2.	=2.	=2.	=2.
0r	0r	0r	2.B\	0r
.	.	.	4c\	.
.	.	.	1A	.
=3	=3	=3	=3	=3
0E	0r	0r	2.G/	0g
.	.	.	4A/	.
.	.	.	2B\	.
.	.	.	[2c\	.
=4.	=4.	=4.	=4.	=4.
2.C/	0r	0r	4c\]	2.e/
.	.	.	4B\	.
.	.	.	1A	.
4D\	.	.	.	4f/
1BB	.	.	.	1d
.	.	.	2G#i/	.
=5	=5	=5	=5	=5
[0AA	0A	0r	[0A	2.c/
.	.	.	.	4d/
.	.	.	.	2e/
.	.	.	.	[2f/
=6.	=6.	=6.	=6.	=6.
0AA]	2.F\	0r	0A]	4f/]
.	.	.	.	4e/
.	.	.	.	2.d/
.	4G\	.	.	.
.	1E	.	.	.
.	.	.	.	4c#i/
.	.	.	.	2c#i/
=7	=7	=7	=7	=7
0r	[0D	0d	0r	2.d/
.	.	.	.	4e/
.	.	.	.	2f/
.	.	.	.	2g/
=8.	=8.	=8.	=8.	=8.
0r	0D]	2.B\	0r	2d/
.	.	.	.	1g
.	.	4c\	.	.
.	.	1A	.	.
.	.	.	.	2f#i/
=9	=9	=9	=9	=9
1r	0r	1G	0r	0g
[1G	.	[1B	.	.
=10.	=10.	=10.	=10.	=10.
2G\]	0r	2B\]	0r	0r
4F\	.	4A/	.	.
4E\	.	4G/	.	.
2F\	.	2A/	.	.
2G\	.	2B\	.	.
=11	=11	=11	=11	=11
1C	1r	0c	1r	0r
[1A	[1c	.	[1f	.
=12.	=12.	=12.	=12.	=12.
2A\]	2c\]	1r	2f\]	0r
4G\	4B\	.	4e\	.
4F\	4A\	.	4d\	.
2G\	2B\	2r	1e	.
2A\	2c\	2A/	.	.
=13	=13	=13	=13	=13
0D	1F	2B\	1d	0r
.	.	2.A/	.	.
.	[1d	.	[1f	.
.	.	4G/	.	.
.	.	4F/	.	.
.	.	4E/	.	.
=14.	=14.	=14.	=14.	=14.
0r	2d\]	1D	2f\]	0r
.	4c\	.	4e\	.
.	4B\	.	4d\	.
.	2c\	2r	2e\	.
.	2d\	2D/	2f\	.
=15	=15	=15	=15	=15
1r	0G	2.E/	0g	1r
.	.	4F/	.	.
[1G	.	4G/	.	[1b
.	.	4A/	.	.
.	.	4B\	.	.
.	.	4c\	.	.
=16.	=16.	=16.	=16.	=16.
2G\]	0r	2d\	0r	2b\]
4F\	.	2e\	.	4a/
4E\	.	.	.	4g/
2F\	.	1d	.	2a/
2G\	.	.	.	2b\
=17	=17	=17	=17	=17
1C	1r	0c	0r	2.cc\
.	.	.	.	4b\
[1A	[1c	.	.	2a/
.	.	.	.	4g/
.	.	.	.	4f/
=18.	=18.	=18.	=18.	=18.
2A\]	2c\]	1r	0r	4e/
.	.	.	.	4f/
4G\	4B\	.	.	4g/
4F\	4A\	.	.	4a/
2G\	2B\	2r	.	2g/
2A\	2c\	2c\	.	2e/
=19	=19	=19	=19	=19
0D	1F	2d\	1r	1f
.	.	2.A/	.	.
.	[1d	.	[1f	[1a
.	.	4G/	.	.
.	.	4F/	.	.
.	.	4E/	.	.
=20.	=20.	=20.	=20.	=20.
0r	2d\]	1D	2f\]	1a]
.	4c\	.	4e\	.
.	4B\	.	4d\	.
.	2c\	2r	2e\	1a
.	2d\	2D/	2f\	.
=21	=21	=21	=21	=21
0GG	0G	2G/	1.g	2.b\
.	.	2D/	.	.
.	.	.	.	4g/
.	.	2.G/	.	4b\
.	.	.	.	4cc\
.	.	.	4f\	[2dd\
.	.	4A/	4e\	.
=22.	=22.	=22.	=22.	=22.
0GG	0r	2B\	1d	2dd\]
.	.	2c\	.	1cc
.	.	1d	1g	.
.	.	.	.	2b\
=23	=23	=23	=23	=23
0AA	0C	2c\	1e	0cc
.	.	1A	.	.
.	.	.	2f\	.
.	.	4G/	[2e\	.
.	.	4F/	.	.
=24.	=24.	=24.	=24.	=24.
0AA	0C	1E	2e\]	0a
.	.	.	2d\	.
.	.	1F	1c	.
=25	=25	=25	=25	=25
1GG	0D	2.G/	1B	1b
.	.	4A/	.	.
[1GG	.	4B\	[1d	2.g/
.	.	4c\	.	.
.	.	[2B\	.	.
.	.	.	.	4a/
=26.	=26.	=26.	=26.	=26.
2GG/]	0D	2B\]	2d\]	2b\
2AA/	.	1A	2c\	2cc\
1BB	.	.	1B	2dd\
.	.	2G#i/	.	2b\
=27	=27	=27	=27	=27
2.AA/	1C	[0A	2r	2cc\
.	.	.	2c\	1a
4BB/	.	.	.	.
4C/	[1C	.	4A/	.
4D\	.	.	4B\	.
[2E\	.	.	4c\	4g/
.	.	.	4d\	4f/
=28.	=28.	=28.	=28.	=28.
2E\]	2C/]	0A]	2e\	2e/
1D	2D\	.	2A/	2.a/
.	1E	.	1e	.
.	.	.	.	4b\
2C/	.	.	.	2cc\
=29	=29	=29	=29	=29
0D	2.D\	0r	0f	2f/
.	.	.	.	2a/
.	4E\	.	.	.
.	4F\	.	.	2b\
.	4G\	.	.	.
.	[2A\	.	.	[2dd\
=30.	=30.	=30.	=30.	=30.
2.BB/	2A\]	0r	2d\	2dd\]
.	1G	.	1e	4cc\
4C/	.	.	.	4b\
1AA	.	.	.	1cc
.	2F#i\	.	4d\	.
.	.	.	4c\	.
=31	=31	=31	=31	=31
[0GG	0G	1r	2e\	0b
.	.	.	2d\	.
.	.	1D	1B	.
=32.	=32.	=32.	=32.	=32.
0GG]	2.E\	1G	0r	1r
.	4F\	.	.	.
.	1D	1G	.	1d
=33	=33	=33	=33	=33
0r	[0C	1E	1r	1g
.	.	1E	1G	1g
=34.	=34.	=34.	=34.	=34.
0r	0C]	2.A/	1c	1e
.	.	4B\	.	.
.	.	2c\	1c	1e
.	.	2d\	.	.
=35	=35	=35	=35	=35
0r	0r	2e\	1A	2.a/
.	.	1f	.	.
.	.	.	.	4b\
.	.	.	2.A/	2cc\
.	.	4e\	.	2dd\
.	.	4d\	4B\	.
=36.	=36.	=36.	=36.	=36.
0r	0r	2e\	2c\	2a/
.	.	2d\	2d\	1dd
.	.	1e	1A	.
.	.	.	.	2cc#i\
=37	=37	=37	=37	=37
1r	0r	1d	2B\	0dd
.	.	.	2.d\	.
1GG	.	1G	.	.
.	.	.	4c\	.
.	.	.	4B\	.
.	.	.	4A/	.
=38.	=38.	=38.	=38.	=38.
1C	0r	1G	0G	1r
1C	.	1c	.	1g
=39	=39	=39	=39	=39
1AA	1r	1c	0r	1cc
1AA	1C	[1A	.	1cc
=40.	=40.	=40.	=40.	=40.
2.D\	1F	1A]	0r	2a/
.	.	.	.	2.dd\
4E\	.	.	.	.
2F\	1F	[1d	.	.
.	.	.	.	4cc\
2G\	.	.	.	2b\
=41	=41	=41	=41	=41
2A\	1D	1d]	0r	2a/
2B\	.	.	.	1g
1A	1D	1d	.	.
.	.	.	.	2f#i/
=42.	=42.	=42.	=42.	=42.
0G	2.G\	1B	2r	[0g
.	.	.	2.g\	.
.	4A\	.	.	.
.	2B\	2.G/	.	.
.	.	.	4f\	.
.	2c\	.	2e\	.
.	.	4A/	.	.
=43	=43	=43	=43	=43
1r	2d\	2B\	2d\	0g]
.	2e\	2c\	1c	.
1G	1d	1G	.	.
.	.	.	2B\	.
=44.	=44.	=44.	=44.	=44.
2.A\	0c	2r	2.c\	0r
.	.	2.c\	.	.
4G\	.	.	4d\	.
2F\	.	.	4e\	.
.	.	4B\	4f\	.
2E\	.	2G/	[2g\	.
=45	=45	=45	=45	=45
1D	1r	2A/	2g\]	1r
.	.	2F/	1f	.
1C	1c	1G	.	2.g/
.	.	.	2e\	.
.	.	.	.	4a/
=46.	=46.	=46.	=46.	=46.
0r	2.d\	0r	2.f\	4b\
.	.	.	.	4cc\
.	.	.	.	1dd
.	4c\	.	4d\	.
.	2B\	.	4f\	.
.	.	.	4e\	.
.	2A\	.	4d\	[2cc\
.	.	.	4c\	.
=47	=47	=47	=47	=47
1G	1G	1r	2d\	2cc\]
.	.	.	2e\	2b\
2.A\	1F	[1c	[1f	2a/
.	.	.	.	[2cc\
4G\	.	.	.	.
=48.	=48.	=48.	=48.	=48.
2F\	0r	1c]	1f]	4cc\]
.	.	.	.	4b\
2E\	.	.	.	4a/
.	.	.	.	4g/
1D	.	1d	1f	1f
=49	=49	=49	=49	=49
1C	1c	2.G/	1.g	1e
.	.	4A/	.	.
[1GG	2.d\	2B\	.	2.g/
.	.	2c\	4f\	.
.	4c\	.	4e\	4a/
=50.	=50.	=50.	=50.	=50.
2GG/]	2B\	1d	[0d	2b\
2AA/	2A\	.	.	2cc\
2BB/	1G	1D	.	[1dd
2C/	.	.	.	.
=51	=51	=51	=51	=51
0D	[0Fl	2r	0d]	2dd\]
.	.	2.D/	.	4cc\
.	.	.	.	4b\
.	.	.	.	1a
.	.	4E/	.	.
.	.	4F/	.	.
.	.	4G/	.	.
=52.	=52.	=52.	=52.	=52.
[0Dl	0F_	2A/	[0dl	2r
.	.	1B-i	.	2.d/
.	.	.	.	4e/
.	.	4A/	.	4f/
.	.	4G/	.	4g/
=53	=53	=53	=53	=53
0D_	0F_	2F/	0d_	2a/
.	.	2G/	.	2b-i\
.	.	[1A	.	2a/
.	.	.	.	2d/
=54.	=54.	=54.	=54.	=54.
0D]	0F]	1A]	0d]	2.f/
.	.	.	.	4g/
.	.	1Al	.	1al
!!LO:LB:i:g=z
=55||	=55||	=55||	=55||	=55||
*>B	*>B	*>B	*>B	*>B
*clefF4	*clefF4	*clefGv2	*clefGv2	*clefG2
*k[]	*k[]	*k[]	*k[]	*k[]
*M2/1	*M2/1	*M2/1	*M2/1	*M2/1
*met(C|)	*met(C|)	*met(C|)	*met(C2)	*met(C|)
!!section: Pleni sunt celi
!!!OMD: Pleni sunt celi
0r	0r	0r	[0d	1r
.	.	.	.	1d
=56	=56	=56	=56.	=56
0r	0r	0r	0d]	4d/
.	.	.	.	4e/
.	.	.	.	4f/
.	.	.	.	4g/
.	.	.	.	2a/
.	.	.	.	2d/
=57	=57	=57	=57	=57
0r	0r	0r	0d	2.f/
.	.	.	.	4g/
.	.	.	.	2a/
.	.	.	.	2b\
=58	=58	=58	=58.	=58
0r	0r	0r	1A	[0cc
.	.	.	2r	.
.	.	.	[2A/	.
=59	=59	=59	=59	=59
0r	0r	0r	4A/]	0cc]
.	.	.	4B\	.
.	.	.	4c\	.
.	.	.	4d\	.
.	.	.	2e\	.
.	.	.	2A/	.
=60	=60	=60	=60.	=60
0r	0r	0r	2.c\	0cc
.	.	.	4d\	.
.	.	.	2e\	.
.	.	.	2f\	.
=61	=61	=61	=61	=61
0r	0r	0r	1.g	1.b
.	.	.	4f\	4a/
.	.	.	4e\	4g/
=62	=62	=62	=62.	=62
0r	0r	0r	2f\	2a/
.	.	.	1e	1g
.	.	.	[2e\	[2cc\
=63	=63	=63	=63	=63
0r	0r	0r	2e\]	2cc\]
.	.	.	4d\	1b
.	.	.	4c\	.
.	.	.	2d\	.
.	.	.	2e\	4a/
.	.	.	.	4g/
=64	=64	=64	=64.	=64
0r	0r	0r	1f	1a
.	.	.	2r	1d
.	.	.	[2f\	.
=65	=65	=65	=65	=65
0r	0r	0r	2f\]	2r
.	.	.	1e	1cc
.	.	.	4d\	[2b\
.	.	.	4c\	.
=66	=66	=66	=66.	=66
0r	0r	0r	2d\	2b\]
.	.	.	2c\	4a/
.	.	.	.	4g/
.	.	.	1f	2a/
.	.	.	.	[2d/
=67	=67	=67	=67	=67
0r	0r	0r	2r	4d/]
.	.	.	.	4e/
.	.	.	1f	4f/
.	.	.	.	4g/
.	.	.	.	2a/
.	.	.	[2e\	2b\
=68	=68	=68	=68.	=68
0r	0r	0r	2e\]	2cc\
.	.	.	4d\	1b
.	.	.	4c\	.
.	.	.	2d\	.
.	.	.	2c\	4a/
.	.	.	.	4g/
=69	=69	=69	=69	=69
0r	0r	0r	2.f\	2a/
.	.	.	.	2.d/
.	.	.	4e\	.
.	.	.	2d\	.
.	.	.	.	4e/
.	.	.	2c\	4f/
.	.	.	.	4g/
=70	=70	=70	=70.	=70
0r	0r	0r	2f\	2a/
.	.	.	1e	2b\
.	.	.	.	2.cc\
.	.	.	4d\	.
.	.	.	4c\	4b\
=71	=71	=71	=71	=71
0r	0r	0r	2d\	4a/
.	.	.	.	4g/
.	.	.	2G/	1g
.	.	.	1A	.
.	.	.	.	2f#i/
=72	=72	=72	=72.	=72
0r	0r	0r	[0G	0g
=73	=73	=73	=73	=73
0r	0r	0r	0G]	1r
.	.	.	.	1g
=74	=74	=74	=74.	=74
0r	0r	0r	0r	2.e/
.	.	.	.	4f/
.	.	.	.	1d
=75	=75	=75	=75	=75
0r	0r	0r	1g	1c
.	.	.	2.e\	2r
.	.	.	.	2g/
.	.	.	4f\	.
=76	=76	=76	=76.	=76
0r	0r	0r	1d	2a/
.	.	.	.	2b\
.	.	.	2c\	1e
.	.	.	2g\	.
=77	=77	=77	=77	=77
0r	0r	0r	2.e\	2r
.	.	.	.	2g/
.	.	.	4f\	.
.	.	.	1d	2a/
.	.	.	.	2b\
=78	=78	=78	=78.	=78
0r	0r	0r	1c	4e/
.	.	.	.	4f/
.	.	.	.	4g/
.	.	.	.	4a/
.	.	.	2r	2f/
.	.	.	2c\	2e/
=79	=79	=79	=79	=79
0r	0r	0r	2d\	2r
.	.	.	2e\	2b\
.	.	.	1A	2cc\
.	.	.	.	4b\
.	.	.	.	4a/
=80	=80	=80	=80.	=80
0r	0r	0r	2r	2g/
.	.	.	2c\	2a/
.	.	.	2d\	2r
.	.	.	2e\	2b\
=81	=81	=81	=81	=81
0r	0r	0r	3%2A	2.cc\
.	.	.	3c\	.
.	.	.	.	4a/
.	.	.	3d\	2b\
.	.	.	3%2e	.
.	.	.	.	[2cc\
=82	=82	=82	=82.	=82
0r	0r	0r	2A/	4cc\]
.	.	.	.	4a/
.	.	.	2e\	4b\
.	.	.	.	4cc\
.	.	.	4f\	2dd\
.	.	.	4e\	.
.	.	.	4d\	[2cc\
.	.	.	4c\	.
=83	=83	=83	=83	=83
0r	0r	0r	1d	2cc\]
.	.	.	.	2b\
.	.	.	[1c	1cc
=84	=84	=84	=84.	=84
0r	0r	0r	1c]	2r
.	.	.	.	2g/
.	.	.	2r	2.a/
.	.	.	2A/	.
.	.	.	.	4cc\
=85	=85	=85	=85	=85
0r	0r	0r	2G/	2b\
.	.	.	2.A/	1a
.	.	.	4c\	.
.	.	.	2B\	2g/
=86	=86	=86	=86.	=86
0r	0r	0r	1A	2.a/
.	.	.	.	4cc\
.	.	.	2G/	2b\
.	.	.	[2A/	[2a/
=87	=87	=87	=87	=87
0r	0r	0r	4A/]	2a/]
.	.	.	4c\	.
.	.	.	2B\	2g/
.	.	.	2A/	2f/
.	.	.	[2c\	2e/
=88	=88	=88	=88.	=88
0r	0r	0r	2c\]	1d
.	.	.	2B\	.
.	.	.	[1c	2r
.	.	.	.	2g/
=89	=89	=89	=89	=89
0r	0r	0r	1c]	2.a/
.	.	.	.	4g/
.	.	.	2r	2f/
.	.	.	2c\	2e/
=90	=90	=90	=90.	=90
0r	0r	0r	4d\	2d/
.	.	.	4c\	.
.	.	.	4B\	2.g/
.	.	.	4A/	.
.	.	.	2G/	.
.	.	.	.	4f/
.	.	.	[2g\	4e/
.	.	.	.	4d/
=91	=91	=91	=91	=91
0r	0r	0r	4g\]	1c
.	.	.	4f\	.
.	.	.	4e\	.
.	.	.	4d\	.
.	.	.	4c\	2r
.	.	.	4B\	.
.	.	.	4A/	[2cc\
.	.	.	4G/	.
=92	=92	=92	=92.	=92
0r	0r	0r	1A	4cc\]
.	.	.	.	4b\
.	.	.	.	4a/
.	.	.	.	4g/
.	.	.	2r	4f/
.	.	.	.	4e/
.	.	.	2g\	4d/
.	.	.	.	4c/
=93	=93	=93	=93	=93
0r	0r	0r	2.f\	0d
.	.	.	4e\	.
.	.	.	4d\	.
.	.	.	4c\	.
.	.	.	4B\	.
.	.	.	4A/	.
=94	=94	=94	=94.	=94
0r	0r	0r	4G/	2r
.	.	.	4A/	.
.	.	.	4B\	2dd\
.	.	.	4G/	.
.	.	.	[1A	2.cc\
.	.	.	.	4b\
=95	=95	=95	=95	=95
0r	0r	0r	1A]	4a/
.	.	.	.	4g/
.	.	.	.	4f/
.	.	.	.	4e/
.	.	.	2r	4d/
.	.	.	.	4e/
.	.	.	2d\	4f/
.	.	.	.	4d/
=96	=96	=96	=96.	=96
0r	0r	0r	2.c\	2.e/
.	.	.	4B\	4d/
.	.	.	4A/	2c/
.	.	.	4G/	.
.	.	.	[2G/	2B/
=97	=97	=97	=97	=97
0r	0r	0r	2G/]	1A
.	.	.	2F#i/	.
.	.	.	1Gl	1Bl
!!LO:LB:i:g=z
=98||	=98||	=98||	=98||	=98||
*>C	*>C	*>C	*>C	*>C
*clefF4	*clefF4	*clefGv2	*clefGv2	*clefG2
*k[]	*k[]	*k[]	*k[]	*k[]
*M2/1	*M2/1	*M2/1	*M2/1	*M2/1
*met(C2)	*met(C2)	*met(C2)	*met(C2)	*met(C2)
!!section: Osanna
!!!OMD: Osanna
0GG	0r	0G	0d	0g
=99.	=99.	=99.	=99.	=99.
1GG	0r	1G	1d	0g
[1C	.	[1E	[1e	.
=100	=100	=100	=100	=100
1C]	0C	1E]	1e]	0cc
[1AA	.	1E	1e	.
=101.	=101.	=101.	=101.	=101.
1AA]	1C	0A	1c	1cc
[1D	[1F	.	[1d	[1a
=102	=102	=102	=102	=102
1D]	1F]	1A	1d]	1a]
1D	[1D	1F	1d	1a
=103.	=103.	=103.	=103.	=103.
1.GG	1D]	1.G	1.B	0dd
.	[1G	.	.	.
2AA/	.	2F/	2c\	.
=104	=104	=104	=104	=104
1BB	1G]	1D	1d	1dd
1C	1G	[1E	1c	1g
=105.	=105.	=105.	=105.	=105.
1.AA	1.C	1E]	0e	1.cc
.	.	[1c	.	.
2BB/	2D\	.	.	2b\
=106	=106	=106	=106	=106
1C	1E	2c\]	1e	2a/
.	.	2B\	.	1g
1D	1F	1A	1d	.
.	.	.	.	2f#i/
=107.	=107.	=107.	=107.	=107.
0GG	1.D	2.G/	0B	0g
.	.	4A/	.	.
.	.	2B\	.	.
.	2E\	2G/	.	.
=108	=108	=108	=108	=108
1r	1F	2A/	1r	1r
.	.	1c	.	.
[1G	1G	.	1d	[1g
.	.	2B\	.	.
=109.	=109.	=109.	=109.	=109.
1G]	0C	[0c	1e	1g]
1G	.	.	1e	1g
=110	=110	=110	=110	=110
1.C	1r	0c]	2.g\	1.e
.	.	.	4f\	.
.	[1c	.	2e\	.
2D\	.	.	2d\	2f/
=111.	=111.	=111.	=111.	=111.
1E	1c]	0r	1c	1g
1F	1c	.	2r	2c/
.	.	.	2c\	2cc\
=112	=112	=112	=112	=112
1.D	1.F	0r	1d	2b\
.	.	.	.	2.a/
.	.	.	[1f	.
.	.	.	.	4b\
2E\	2G\	.	.	2g/
=113.	=113.	=113.	=113.	=113.
1F	1A	0r	2f\]	2c/
.	.	.	2e\	1cc
1G	1B	.	1d	.
.	.	.	.	2b\
=114	=114	=114	=114	=114
0C	1.G	1.c	2r	0cc
.	.	.	1c	.
.	2A\	4B\	2d\	.
.	.	4A/	.	.
=115.	=115.	=115.	=115.	=115.
1r	1B	2G/	2e\	0r
.	.	2F/	1f	.
1C	1c	1G	.	.
.	.	.	2e\	.
=116	=116	=116	=116	=116
2.D\	0F	2F/	0f	1r
.	.	2.A/	.	.
4E\	.	.	.	.
4F\	.	.	.	1a
4G\	.	4B\	.	.
4A\	.	4c\	.	.
4F\	.	4d\	.	.
=117.	=117.	=117.	=117.	=117.
2G\	1r	2B\	1r	1g
2E\	.	1c	.	.
1D	1F	.	1d	1f
.	.	2B\	.	.
=118	=118	=118	=118	=118
1C	2.G\	1c	2e\	2e/
.	.	.	4c\	2.g/
.	4A\	.	4d\	.
1r	4B\	1G	4e\	.
.	4c\	.	4f\	4f/
.	4d\	.	[2g\	4e/
.	4B\	.	.	4d/
=119.	=119.	=119.	=119.	=119.
1r	2c\	2E/	2g\]	0c
.	2A\	2F/	1f	.
1C	1G	1C	.	.
.	.	.	2e\	.
=120	=120	=120	=120	=120
2.D\	1F	2r	0f	1r
.	.	2.A/	.	.
4E\	.	.	.	.
4F\	1r	.	.	1a
4G\	.	4B\	.	.
4A\	.	4c\	.	.
4F\	.	4d\	.	.
=121.	=121.	=121.	=121.	=121.
2G\	1r	2B\	1r	1g
2E\	.	1c	.	.
1D	1F	.	1d	1f
.	.	2B\	.	.
=122	=122	=122	=122	=122
1C	2.G\	1c	2e\	2e/
.	.	.	4c\	2.g/
.	4A\	.	4d\	.
1r	4B\	1G	4e\	.
.	4c\	.	4f\	4f/
.	4d\	.	[2g\	4e/
.	4B\	.	.	4d/
=123.	=123.	=123.	=123.	=123.
1r	2c\	2E/	2g\]	1c
.	2A\	2F/	1f	.
1C	1G	1C	.	1cc
.	.	.	2e\	.
=124	=124	=124	=124	=124
2.D\	1F	0r	2.f\	2b\
.	.	.	.	1a
4C/	.	.	4e\	.
2AA/	1r	.	2c\	.
[2BB/	.	.	2d\	[2dd\
=125.	=125.	=125.	=125.	=125.
2BB/]	1r	1r	1G	2dd\]
4AA/	.	.	.	4cc\
4GG/	.	.	.	4b\
1AA	1F	1C	1r	1cc
=126	=126	=126	=126	=126
[0GG	2.G\	1D	1d	0b
.	4E\	.	.	.
.	2D\	2.G/	4d\	.
.	.	.	4c\	.
.	[2E\	.	4B\	.
.	.	4A/	4A/	.
=127.	=127.	=127.	=127.	=127.
0GG]	2E\]	2B\	2G/	1r
.	4D\	2G/	1c	.
.	4C/	.	.	.
.	1D	1G	.	[1g
.	.	.	2B\	.
=128	=128	=128	=128	=128
0r	[0C	2r	0c	1g]
.	.	2C/	.	.
.	.	2.C/	.	2.e/
.	.	4D/	.	4f/
=129.	=129.	=129.	=129.	=129.
0r	0C]	2E/	1c	2g/
.	.	2F/	.	2a/
.	.	2G/	1c	2g/
.	.	2A/	.	2e/
=130	=130	=130	=130	=130
0r	0r	0D	2d\	2.f/
.	.	.	2D/	.
.	.	.	.	4g/
.	.	.	2.F/	2a/
.	.	.	.	2b\
.	.	.	4G/	.
=131.	=131.	=131.	=131.	=131.
0r	0r	0r	2A/	2cc\
.	.	.	2.B\	2.dd\
.	.	.	4c\	4cc\
.	.	.	2d\	2a/
=132	=132	=132	=132	=132
0r	0r	2r	1G	2b\
.	.	2C/	.	2e/
.	.	2.C/	2c\	2.e/
.	.	.	[2c\	.
.	.	4D/	.	4f/
=133.	=133.	=133.	=133.	=133.
0r	0r	2E/	2c\]	2g/
.	.	2F/	2A/	2a/
.	.	2G/	2B\	2g/
.	.	2A/	2c\	2e/
=134	=134	=134	=134	=134
0r	0r	0D	2d\	2.f/
.	.	.	2D/	.
.	.	.	.	4g/
.	.	.	2.F/	2a/
.	.	.	.	2b\
.	.	.	4G/	.
=135.	=135.	=135.	=135.	=135.
0r	0r	0r	2A/	2cc\
.	.	.	2.B\	2.dd\
.	.	.	4c\	4cc\
.	.	.	2d\	2a/
=136	=136	=136	=136	=136
2r	0r	2r	0G	2b\
2GG/	.	2D/	.	2g/
2.GG/	.	2.D/	.	[1dd
4AA/	.	4C/	.	.
=137.	=137.	=137.	=137.	=137.
2BB/	0r	2D/	1r	2dd\]
2C/	.	2E/	.	2cc\
2D\	.	2F/	2r	2b\
2E\	.	2G/	2G/	4cc\
.	.	.	.	4b\
=138	=138	=138	=138	=138
0AA	2r	0E	1A	1cc
.	2C/	.	.	.
.	2.C/	.	2.E/	1a
.	4D\	.	4F/	.
=139.	=139.	=139.	=139.	=139.
0r	2E\	0r	2G/	2g/
.	2F\	.	2A/	2f/
.	2G\	.	2B\	1e
.	2A\	.	2c\	.
=140	=140	=140	=140	=140
2r	0D	2r	0d	1d
2GG/	.	2G/	.	.
2.GG/	.	2.G/	.	2r
.	.	.	.	[2dd\
4AA/	.	4F/	.	.
=141.	=141.	=141.	=141.	=141.
2BB/	0r	2D/	1r	2dd\]
2C/	.	2E/	.	2cc\
2D\	.	2F/	2r	2b\
2E\	.	2G/	2G/	4cc\
.	.	.	.	4b\
=142	=142	=142	=142	=142
0AA	2r	0E	1A	1cc
.	2C/	.	.	.
.	2.C/	.	2E/	1a
.	.	.	2F/	.
.	4D\	.	.	.
=143.	=143.	=143.	=143.	=143.
1r	2E\	1r	2G/	2g/
.	2F\	.	2A/	2f/
2r	2G\	2r	2B\	1e
2AA/	2A\	2A/	2c\	.
=144	=144	=144	=144	=144
2BB/	[0Dl	2F/	[0dl	2d/
2.GG/	.	2.B-i\	.	2.dd\
4AA/	.	4A/	.	4cc\
4BB/	.	2G/	.	2b\
4C/	.	.	.	.
=145.	=145.	=145.	=145.	=145.
2D\	0D_	2F/	0d_	2a/
2GG/	.	2G/	.	1g
1D	.	1A	.	.
.	.	.	.	2f#i/
=146	=146	=146	=146	=146
[0GGl	0D_	[0Gl	0d_	0g
=147.	=147.	=147.	=147.	=147.
0GG]	0D]	0G]	0d]	0gl
!!LO:LB:i:g=z
!!LO:TX:rj:i:Y=40:t=fine
=148||	=148||	=148||	=148||	=148||
*>D	*>D	*>D	*>D	*>D
*clefF4	*clefF4	*clefGv2	*clefGv2	*clefG2
*k[]	*k[]	*k[]	*k[]	*k[]
*M2/1	*M2/1	*M2/1	*M2/1	*M2/1
*met(C2)	*met(C2)	*met(C2)	*met(C2)	*met(C2)
!!section: Benedictus
!!!OMD: Benedictus
0r	0r	0r	2.G/	0r
.	.	.	4A/	.
.	.	.	2B\	.
.	.	.	2c\	.
=149.	=149.	=149.	=149.	=149.
0r	0r	0r	2G/	0r
.	.	.	1c	.
.	.	.	2B\	.
=150	=150	=150	=150	=150
0r	0r	0r	1c	2.g/
.	.	.	.	4a/
.	.	.	2r	2b\
.	.	.	[2e\	2cc\
=151.	=151.	=151.	=151.	=151.
0r	0r	0r	2e\]	2g/
.	.	.	4d\	1cc
.	.	.	4c\	.
.	.	.	1d	.
.	.	.	.	2b\
=152	=152	=152	=152	=152
0r	0r	0r	2.c\	0cc
.	.	.	4d\	.
.	.	.	2e\	.
.	.	.	2f\	.
=153.	=153.	=153.	=153.	=153.
0r	0r	0r	2c\	2.a/
.	.	.	1f	.
.	.	.	.	4b\
.	.	.	.	1g
.	.	.	2e\	.
=154	=154	=154	=154	=154
0r	0r	0r	4f\	2f/
.	.	.	4e\	.
.	.	.	4d\	2a/
.	.	.	4c\	.
.	.	.	1d	2b\
.	.	.	.	[2dd\
=155.	=155.	=155.	=155.	=155.
0r	0r	0r	2.B\	2dd\]
.	.	.	.	4cc\
.	.	.	4c\	4b\
.	.	.	1A	1cc
=156	=156	=156	=156	=156
0r	0r	0r	0G	2b\
.	.	.	.	2g/
.	.	.	.	2b\
.	.	.	.	[2dd\
=157.	=157.	=157.	=157.	=157.
0r	0r	0r	2r	2dd\]
.	.	.	2.g\	4cc\
.	.	.	.	4b\
.	.	.	.	1cc
.	.	.	4e\	.
.	.	.	2f\	.
=158	=158	=158	=158	=158
0r	0r	0r	2.g\	1b
.	.	.	4f\	.
.	.	.	4e\	2r
.	.	.	4d\	.
.	.	.	4c\	2g/
.	.	.	4B\	.
=159.	=159.	=159.	=159.	=159.
0r	0r	0r	1A	2a/
.	.	.	.	2cc\
.	.	.	2r	2b\
.	.	.	[2g\	2g/
=160	=160	=160	=160	=160
0r	0r	0r	4g\]	2.a/
.	.	.	4e\	.
.	.	.	2f\	.
.	.	.	.	4cc\
.	.	.	2.g\	1b
.	.	.	4f\	.
=161.	=161.	=161.	=161.	=161.
0r	0r	0r	4e\	2r
.	.	.	4d\	.
.	.	.	4c\	2g/
.	.	.	4B\	.
.	.	.	1A	4a/
.	.	.	.	4b\
.	.	.	.	4cc\
.	.	.	.	4a/
=162	=162	=162	=162	=162
0r	0r	0r	1G	2b\
.	.	.	.	2g/
.	.	.	2r	2a/
.	.	.	2g\	2b\
=163.	=163.	=163.	=163.	=163.
0r	0r	0r	2e\	2.cc\
.	.	.	2.f\	.
.	.	.	.	4b\
.	.	.	.	4a/
.	.	.	4e\	4g/
.	.	.	4d\	4f/
.	.	.	4c\	4e/
=164	=164	=164	=164	=164
0r	0r	0r	1B	1d
.	.	.	1c	2r
.	.	.	.	2g/
=165.	=165.	=165.	=165.	=165.
0r	0r	0r	2r	2a/
.	.	.	2g\	2b\
.	.	.	2e\	2.cc\
.	.	.	[2f\	.
.	.	.	.	4b\
=166	=166	=166	=166	=166
0r	0r	0r	4f\]	4a/
.	.	.	4e\	4g/
.	.	.	4d\	4f/
.	.	.	4c\	4e/
.	.	.	4B\	1d
.	.	.	4c\	.
.	.	.	4d\	.
.	.	.	4B\	.
=167.	=167.	=167.	=167.	=167.
0r	0r	0r	0cl	0el
!!LO:LB:i:g=z
=168||	=168||	=168||	=168||	=168||
*>E	*>E	*>E	*>E	*>E
*clefF4	*clefF4	*clefGv2	*clefGv2	*clefG2
*k[]	*k[]	*k[]	*k[]	*k[]
*M2/1	*M2/1	*M2/1	*M2/1	*M2/1
*met(C|)	*met(C|)	*met(C|)	*met(C|)	*met(C|)
!!section: In nomine Domini
!!!OMD: In nomine Domini
0G	0r	0r	0r	0r
=169	=169	=169	=169	=169
2A\	0r	0r	0r	0r
2A\	.	.	.	.
1F	.	.	.	.
=170	=170	=170	=170	=170
2r	0c	0r	0r	0r
2E\	.	.	.	.
2F\	.	.	.	.
2F\	.	.	.	.
=171	=171	=171	=171	=171
1D	2d\	0r	0r	0r
.	2d\	.	.	.
2G\	1B	.	.	.
[2G\	.	.	.	.
=172	=172	=172	=172	=172
2G\]	2r	0r	0r	0r
2F\	2A\	.	.	.
2.G\	2B\	.	.	.
.	2B\	.	.	.
4F\	.	.	.	.
=173	=173	=173	=173	=173
4G\	1G	0r	0r	0r
4F\	.	.	.	.
4E\	.	.	.	.
4D\	.	.	.	.
1E	2c\	.	.	.
.	[2c\	.	.	.
=174	=174	=174	=174	=174
1D	2c\]	0r	0r	0r
.	2B\	.	.	.
2r	2.c\	.	.	.
[2A\	.	.	.	.
.	4B\	.	.	.
=175	=175	=175	=175	=175
2A\]	4c\	0r	0r	0r
.	4B\	.	.	.
1G	4A\	.	.	.
.	4G\	.	.	.
.	1A	.	.	.
2F\	.	.	.	.
=176	=176	=176	=176	=176
2G\	1G	0r	0r	0r
2E\	.	.	.	.
2F\	2r	.	.	.
2D\	[2d\	.	.	.
=177	=177	=177	=177	=177
1E	2d\]	0r	0r	0r
.	1c	.	.	.
2r	.	.	.	.
2D\	2B\	.	.	.
=178	=178	=178	=178	=178
2E\	2c\	0r	0r	0r
2F\	2A\	.	.	.
1G	2B\	.	.	.
.	2G\	.	.	.
=179	=179	=179	=179	=179
2.F\	1A	0r	0r	0r
4E\	.	.	.	.
2D\	2r	.	.	.
[2C/	2G\	.	.	.
=180	=180	=180	=180	=180
4C/]	2A\	0r	0r	0r
4BB/	.	.	.	.
4AA/	2B\	.	.	.
4GG/	.	.	.	.
1AA	1c	.	.	.
=181	=181	=181	=181	=181
1GG	2.B\	0r	0r	0r
.	4A\	.	.	.
2r	2G\	.	.	.
2D\	[2F\	.	.	.
=182	=182	=182	=182	=182
4E\	4F\]	0r	0r	0r
4F\	4E\	.	.	.
4G\	4D\	.	.	.
4E\	4C/	.	.	.
1F	1D	.	.	.
=183	=183	=183	=183	=183
2.E\	1C	0r	0r	0r
4D\	.	.	.	.
2C/	2r	.	.	.
2BB/	2G\	.	.	.
=184	=184	=184	=184	=184
1AA	4A\	0r	0r	0r
.	4B\	.	.	.
.	4c\	.	.	.
.	4A\	.	.	.
1GG	1B	.	.	.
=185	=185	=185	=185	=185
2r	2.A\	0r	0r	0r
2D\	.	.	.	.
.	4G\	.	.	.
2F\	2F\	.	.	.
2G\	2E\	.	.	.
=186	=186	=186	=186	=186
2A\	1D	0r	0r	0r
2B\	.	.	.	.
2.c\	1C	.	.	.
4B\	.	.	.	.
=187	=187	=187	=187	=187
4A\	2r	0r	0r	0r
4G\	.	.	.	.
1B	2G\	.	.	.
.	2B\	.	.	.
[2A\	2c\	.	.	.
=188	=188	=188	=188	=188
2A\]	2d\	0r	0r	0r
2G\	2e\	.	.	.
2.A\	2.f\	.	.	.
4G\	4e\	.	.	.
=189	=189	=189	=189	=189
4F\	4d\	0r	0r	0r
4E\	4c\	.	.	.
2.G\	1e	.	.	.
4F\	.	.	.	.
4E\	[2d\	.	.	.
4D\	.	.	.	.
=190	=190	=190	=190	=190
1E	2d\]	0r	0r	0r
.	2c\	.	.	.
2D\	2.d\	.	.	.
2F\	.	.	.	.
.	4c\	.	.	.
=191	=191	=191	=191	=191
2G\	4B\	0r	0r	0r
.	4A\	.	.	.
2.A\	2.c\	.	.	.
4G\	4B\	.	.	.
[2G\	4A\	.	.	.
.	4G\	.	.	.
=192	=192	=192	=192	=192
2G\]	1A	0r	0r	0r
2F#i\	.	.	.	.
1Gl	1Gl	.	.	.
!!LO:TX:i:Y=40:rj:t=Osanna ut supra
==	==	==	==	==
*-	*-	*-	*-	*-
!!!RDF**kern: l=long note in original notation
!!!RDF**kern: i=editorial accidental
!!!RDF**kern: V=start of tuplet marker
!!!RDF**kern: Z=end of tuplet marker
!!!ENC:	Chris Gage 10-23-2012
!!!END:	2012/11/11/
!!!EED:	Jesse Rodin
!!!EEV:	2012/12/15/
!!!ONB:	Translated from MusicXML and edited on 2012/12/15/ by Craig Sapp
!!muse2ps: T^@{OPR}^u^@{ONM}{. }@{OTL}^C^@{COM}^i2I150v95,95,95,95,130Q4c140
